!!!SOCIAL_FUNCTION:	lightning songs
!!!PDT:	1932
!!!OTL: No_52_White_Cloud_is_Singing_in_the_Sky.krn
!!!REG: Southwest
!!!LANG: Non-Tone
!!!LING_GROUP: Yuman-Cochimi
**kern
*staff1
=1-
*clefF4
*k[b-e-a-]
*M2/4
4r
8.r
16G\
=2
4G\
8.F\L
16E-\Jk
=3
8E-;\L
8E-\J
8r
16r
16G\
=4||
*M3/4
8.G\L
16F\Jk
8G;\L
8G\J
4r
=5||
*M2/4
4G\
8.F\L
16E-\Jk
=6
8E-;\L
8E-\J
4r
=7
4F\
8.F\L
16E-\Jk
=8
8E-;\L
8E-\J
4r
=9
4G\
8.G\L
16F\Jk
=10
8G;\L
8G\J
4r
=11
4G\
8.G\L
16F\Jk
=12
8B-\L
8G\J
8.r
16G\
=13
4F\
8.E-\L
16E-\Jk
=14
8F;\L
8E-\J
4r
=15
4G\
8.G\L
16F\Jk
=16
8G;\L
8G\J
4r
=17
4G\
8.G\L
16F\Jk
=18
8B-\L
8G\J
8.r
16G\
=19||
*M3/4
16G\LK
8.G\J
8G\L
8F\J
4r
=20||
*M2/4
4F\
8.F\L
16E-\Jk
=21
8E-\L
8E-\J
4r
=22
4G\
8.G\L
16F\Jk
=23
8G\L
8G\J
4r
=24||
*M3/4
4G\
8.B-\L
16F\Jk
8G\
16.r
32G\
=25
8G\L
8G\J
4G;\
8F\L
16E-\L
16F\JJ
=26||
*M2/4
4E-\
8BB-/
8r
=27
8.F\L
16E-\Jk
8E-\
8r
=28
4G\
8.G\L
16F\Jk
=29
4G\
8G\
8r
=30
8r
8G\
8G\L
16B-\L
16G\JJ
=31
4G\
8G\
8r
=32
4F\
8.E-\L
16E-\Jk
=33
4F\
8E-\
8r
=34
8F\L
8G\J
8G\L
16G\L
16B-\JJ
=35
4G\
8G\
8r
=36
4r
8G\L
16G\L
16B-\JJ
=37
4G\
8G\
8r
=38
4F\
8.E-\L
16E-\Jk
=39
4F\
8E-\
8r
=40
8F\L
8G\J
8G\L
16G\L
16B-\JJ
=41
4G\
8G\
8r
=42
4r
8G\L
16G\L
16B-\JJ
=43
4G\
8G\
8r
=44!|:
4F\
8E-\
8r
=45
4F\
8E-\
8r
=46
8r
8F\
8G\L
16G\L
16B-\JJ
=47
4G\
8G\
8r
=48
8r
8B-\
8c\L
16B-\L
16c\JJ
=49
4B-\
8.B-\L
16G\Jk
=50
4G;\
8G\L
16F\L
16G\JJ
=51||
*M3/4
4G\
8G\
8r
8B-\L
16B-\L
16c\JJ
=52||
*M2/4
4B-\
8.B-\L
16G\Jk
=53
4G\
8G\L
16F\L
16G\JJ
=54
4G\
8G\
8r
==:|!
*-
